X:1
T:Title
%%score 1 { 2 | 3 }
L:1/8
Q:1/4=85
M:4/4
K:Eb
V:1 treble nm="Grand Piano, Soprano"
V:2 bass nm="Choir Pad, Who Will Send or Go?"
V:3 bass 
V:1
 [B,E][B,E][B,E][B,E] [B,E][B,E] .[B,E]2 | [B,E][B,E]- [B,E]/[B,D]/[B,E] [B,F] .[B,G]3 | %2
w: By~George~Frederick~Root * * * * * *||
 [EG][EA][EA][EA] [EA][EA] .[EA]2 | [EA][EA][EG][GB]- [GB]/[EG]/ .[DF]3 | %4
w: ||
 [DF][DF][DF][DF] [DF][DF] .[DF]2 | [DF][DF]- [DF]/[CE]/[DF] [EG] .[EA]3 | %6
w: ||
 [EB][Ec][Ec][Ec] [Ec][Ec] [EB]2 | [EG][DF]- [DF]/E/[DF] [DG] .E3 | %8
w: ||
 [CE] [CE]2 [CE]- [CE][CE] .[CE]2 | z [CE]- [CE]/[CE]/[CE] [A,C] .[CE]3 | %10
w: ||
 [B,E] [DF]2 [DF]- [DF][EG] .[EG]2 | [GB]>[EG] [DF][DG] E4- | E4 z4 |] %13
w: |||
V:2
 G,G,G,G, G,A, .G,2 | B,G,- G,/F,/G, A, .B,3 | B,[K:treble]CCC CC .C2 | %3
 CC[K:bass]B,B,- B,/B,/ .B,3 | B,B,B,B, B,B, .B,2 | B,B,- B,/B,/B, B, .C3 | B,A,A,A, A,A, G,2 | %7
 B,B,- B,/G,/A, B, .G,3 | A, A,2 A,- A,A, .A,2 | z A,- A,/A,/A, E, .E,3 | G, B,2 B,- B,B, .B,2 | %11
 B,>B, B,B, G,4- | G,4 z4 |] %13
V:3
 E,E,E,E, E,E, .E,2 | E,E,- E,/E,/E, E, .E,3 | E,E,E,E, E,E, .E,2 | E,E,E,E,- E,/E,/ .B,,3 | %4
 B,,B,,B,,B,, B,,B,, .B,,2 | B,,B,,- B,,/B,,/B,, E, .A,,3 | G,,A,,A,,A,, A,,E, E,2 | %7
 E,B,,- B,,/B,,/B,, B,, .E,3 | A,, A,,2 A,,- A,,A,, .A,,2 | z A,,- A,,/A,,/A,, A,, .A,,3 | %10
 E, B,,2 B,,- B,,E, .E,2 | B,,>B,, B,,B,, E,4- | E,4 z4 |] %13

